X:302
T:Opera Reel, The
T:Tommy Gunn's
T:Celebrated Opera Reel, The
R:reel
D:Matt Molloy & Sean Keane: Contentment is Wealth
D:De Danann: Ballroom
Z:id:hn-reel-302
M:C|
K:D
D2DE FDFA | DFAF EDB,E | D2DE FDFA |1 (3Bcd AF EFDE :|2 (3Bcd AF EFD2 || 
|: d2dc dAFA | DFAd egfe | d2dc dAFA | (3Bcd AF EFD2 :| 
a2fa g2eg | fedf edBd | a2af g2ge | fedf ecdf | 
~a3f g2eg | fedf edBe | dfaf g2eg | fdec dcdB || 
|: Adfd efge | fedf edBd | Adfd efge |1 fedf e2dB :|2 agec dBAF || 
P:Variations
|: D3 FDFA | DFAF EDB,A, | D2DE FDFA |1 (3Bcd AF EFDE :|2 (3Bcd AF EFD2 || 
|: d2dc dAFA | DFAd egfe | d2dc dAFA | (3Bcd AF EFD2 :| 
~a3f ~g3e | fedf edBd | a2af g2ge | fedf eAdf | 
~a3f ~g3e | fedf edBe | dfaf g2ag | fdec dcdB || 
|: Adfd efge | fedf edBd | Adfd efge |1 fedf e2dB :|2 fdec dBAF || 

